X: 13
T: No_21_Toto_Dance_Song_(a).krn
N: Derived from No_21_Toto_Dance_Song_(a).krn
%%abc-version 2.0
%%abcx-abcm2ps-target-version 5.9.1 (29 Sep 2008)
%%abc-creator hum2abc beta
%%abcx-conversion-date 2019/03/15 08:35:00
%%humdrum-veritas 290949042
%%humdrum-veritas-data 1513648950
%%linebreak <none>
%%barnumbers 0
L: 1/16
M: 3/4
K: Eb clef=bass
[K:clef=bass][M:3/4]ECCC C2 (3B,B,B,C4 [I:setbarnb 2]| 
ECCC C2 (3B,B,B, C2 z B, | 
[M:2/4]C3(C G,3)G, | 
G,3F, E,2 z2 | 
[M:3/4]EDCC C2 (3B,B,B,C4 | 
ECCC C2 (3B,B,B,C4 | 
ECCC C2 (3B,B,B, C2 z B, | 
[M:2/4]C3(C G,3)G, | 
G,2G,F, E,2 z2 | 
[M:3/4]EDEC C2 (3B,B,B,C4 | 
ECCC C2 (3B,B,B, C2 z2 | 
CB,CC C2 (3B,B,B, C2 z B, | 
[M:2/4]C3(C G,3)G, | 
G,3F, E,2 z2 :|]  



